X:258
T:Scottiche Valse
A:Massif Central
O:France
M:4/4
L:1/4
K:C
edc d/2e/2|fdec|edcd/2e/2|fed2|edc d/2e/2|fdec|edcd/2e/2|fed2||
M:3/4
|:f>df|ec2|d/2e/2dc|B/2c/2ef|f>df|ec2|d/2e/2dB|c3:||
